X: 4543
T: Boscastle Breakdown, The
R: hornpipe
M: 4/4
K: Gmajor
|:d2|G>AB>c d2 G2|c>de>f g4|G>AB>c d>GB>G|c2 A2 A2 B>A|
G>AB>c d2 G2|c>de>f g2 f>e|d>gf>e d>cB>A|B2 G2 G2:|
|:d2|g>dB>d g>dB>d|g>ec>e g>ec>e|g>dB>d g>dB>d|(3cdc A2 A4|
g>dB>d g>dB>d|g>ec>e g>ec>e|a>gf>e d>cB>A|G2 G2 G2:|

